static/icons/buy-blue.svg

<svg height="42" viewBox="0 0 42 42" width="42" xmlns="http://www.w3.org/2000/svg" xmlns:xlink="http://www.w3.org/1999/xlink"><radialGradient id="a" cx="50%" cy="50.87649%" r="79.846995%"><stop offset="0" stop-color="#0ad4fa"/><stop offset="1" stop-color="#25bbf1"/></radialGradient><g fill="none" fill-rule="evenodd"><circle cx="21" cy="21" fill="url(#a)" r="21"/><path d="m29.9946924 29.1076172-1.1124923-13.5769236c-.0241776-.3053906-.2877051-.54125-.6046821-.54125h-3.0323055v-1.0597561c0-1.6154297-1.3602922-2.9296875-3.0323054-2.9296875h-2.4258444c-1.6720133 0-3.0323055 1.3142578-3.0323055 2.9296875v1.0597561h-3.0323054c-.316977 0-.5805046.2358594-.6046822.54125l-1.1124518 13.5766892c-.0387731.4866016.1358473.9710547.4790638 1.3291406.3432166.358086.8298005.5634766 1.3349422.5634766h14.3612817c.5051417 0 .9916852-.2053516 1.3349422-.5634375.3432569-.3580859.5178773-.8425391.4791447-1.3289453zm-11.9946924-14.8576172c0-1.24065.80748-2.25 1.8-2.25h2.4c.99252 0 1.8 1.00935 1.8 2.25v.75h-6z" fill="#fff" fill-rule="nonzero"/></g></svg>

<?xml version="1.0" encoding="UTF-8"?>
<svg width="42px" height="42px" viewBox="0 0 42 42" version="1.1" xmlns="http://www.w3.org/2000/svg" xmlns:xlink="http://www.w3.org/1999/xlink">
    <!-- Generator: Sketch 46.1 (44463) - http://www.bohemiancoding.com/sketch -->
    <title>Icon</title>
    <desc>Created with Sketch.</desc>
    <defs>
        <radialGradient cx="50%" cy="50.8764901%" fx="50%" fy="50.8764901%" r="79.8469947%" id="radialGradient-1">
            <stop stop-color="#0AD4FA" offset="0%"></stop>
            <stop stop-color="#25BBF1" offset="100%"></stop>
        </radialGradient>
    </defs>
    <g id="Page-1" stroke="none" stroke-width="1" fill="none" fill-rule="evenodd">
        <g id="Catalog" transform="translate(-354.000000, -648.000000)">
            <g id="products" transform="translate(132.000000, 624.000000)">
                <g id="line-1">
                    <g id="product-card" transform="translate(0.000000, 12.000000)">
                        <g id="Icon" transform="translate(222.000000, 12.000000)">
                            <g>
                                <circle id="Oval-Copy-5" fill="url(#radialGradient-1)" cx="21" cy="21" r="21"></circle>
                                <path d="M29.9946924,29.1076172 L28.8822001,15.5306936 C28.8580225,15.225303 28.594495,14.9894436 28.277518,14.9894436 L25.2452125,14.9894436 L25.2452125,13.9296875 C25.2452125,12.3142578 23.8849203,11 22.2129071,11 L19.7870627,11 C18.1150494,11 16.7547572,12.3142578 16.7547572,13.9296875 L16.7547572,14.9894436 L13.7224518,14.9894436 C13.4054748,14.9894436 13.1419472,15.225303 13.1177696,15.5306936 L12.0053178,29.1073828 C11.9665447,29.5939844 12.1411651,30.0784375 12.4843816,30.4365234 C12.8275982,30.7946094 13.3141821,31 13.8193238,31 L28.1806055,31 C28.6857472,31 29.1722907,30.7946484 29.5155477,30.4365625 C29.8588046,30.0784766 30.033425,29.5940234 29.9946924,29.1076172 Z M18,14.25 C18,13.00935 18.80748,12 19.8,12 L22.2,12 C23.19252,12 24,13.00935 24,14.25 L24,15 L18,15 L18,14.25 Z" id="Shape-Copy-2" fill="#FFFFFF" fill-rule="nonzero"></path>
                            </g>
                        </g>
                    </g>
                </g>
            </g>
        </g>
    </g>
</svg>
